img/linkedin2.svg

<!-- Generated by IcoMoon.io -->
<svg version="1.1" xmlns="http://www.w3.org/2000/svg" width="64" height="64" viewBox="0 0 64 64">
<title>linkedin2</title>
<path fill="#787878" d="M24 24h11.069v5.674h0.158c1.54-2.762 5.31-5.674 10.928-5.674 11.684 0 13.845 7.273 13.845 16.733v19.267h-11.538v-17.080c0-4.074-0.083-9.314-6.002-9.314-6.009 0-6.926 4.437-6.926 9.018v17.376h-11.534v-36z"></path>
<path fill="#787878" d="M4 24h12v36h-12v-36z"></path>
<path fill="#787878" d="M16 14c0 3.314-2.686 6-6 6s-6-2.686-6-6c0-3.314 2.686-6 6-6s6 2.686 6 6z"></path>
</svg>

<svg xmlns="http://www.w3.org/2000/svg" width="64" height="64" viewBox="0 0 64 64"><title>linkedin2</title><path fill="#787878" d="M24 24h11.069v5.674h.158C36.767 26.912 40.537 24 46.155 24 57.839 24 60 31.273 60 40.733V60H48.462V42.92c0-4.074-.083-9.314-6.002-9.314-6.009 0-6.926 4.437-6.926 9.018V60H24V24zM4 24h12v36H4V24zM16 14a6 6 0 1 1-12 0 6 6 0 0 1 12 0z"/></svg>
